X:20021
T:Trip to Brighton
R:March
C:Trad.
O:England
Z:Paul Hardy's Session Tunebook 2022 (see www.paulhardy.net). Creative Commons cc by-nc-sa licenced.
M:2/2
L:1/8
Q:1/2=100
K:G
"G"GABc d2g2|d2BA G2AB|"D7"c2A2 "G"B2G2|"D"F2D2-D2F2|"C"E2C2-C2E2|c2E2-E2c2|"G"Bcd2 "D"D2F2|"G"G4 G4:|
"G"G2D2-D2G2|B2B2 Bcd2|"Am"c2A2-A2a2|"D7"a2A2 ABc2|"G"B2G2 "D7"c2A2|"G"d2B2 "Em"g2g2|"D"fga2 "A"A2^c2|"D"d4 d4|
"G"G2D2-D2G2|B2B2 Bcd2|"Am"c2A2-A2a2|"D7"a2A2 ABc2|"G"B2G2 "D7"c2A2|"G"d2B2 "C"g2c2|"G"Bcd2 "D"D2F2|"G"G4 G4||

